actions/24/view-refresh.svg

<?xml version="1.0" encoding="UTF-8" standalone="no"?>
<!-- Created with Inkscape (http://www.inkscape.org/) -->

<svg
   xmlns:svg="http://www.w3.org/2000/svg"
   xmlns="http://www.w3.org/2000/svg"
   xmlns:xlink="http://www.w3.org/1999/xlink"
   version="1.0"
   width="24"
   height="24"
   id="svg2">
  <defs
     id="defs4">
    <linearGradient
       id="linearGradient5105-262-943-861">
      <stop
         id="stop2487"
         style="stop-color:#0d0d0d;stop-opacity:1"
         offset="0" />
      <stop
         id="stop2489"
         style="stop-color:#0d0d0d;stop-opacity:0"
         offset="1" />
    </linearGradient>
    <radialGradient
       cx="11.25"
       cy="19.03125"
       r="8.0625"
       fx="11.25"
       fy="19.03125"
       id="radialGradient2459"
       xlink:href="#linearGradient5105-262-943-861"
       gradientUnits="userSpaceOnUse"
       gradientTransform="matrix(1.4061954,0,0,0.3867044,-3.8196985,13.522738)" />
    <linearGradient
       id="linearGradient3533">
      <stop
         id="stop3535"
         style="stop-color:#b0cce6;stop-opacity:1"
         offset="0" />
      <stop
         id="stop3545"
         style="stop-color:#83acd5;stop-opacity:1"
         offset="1" />
    </linearGradient>
    <linearGradient
       x1="15.372947"
       y1="5.0471625"
       x2="15.372947"
       y2="22.599676"
       id="linearGradient2517"
       xlink:href="#linearGradient3533"
       gradientUnits="userSpaceOnUse"
       gradientTransform="matrix(0.4873978,0,0,0.4781595,0.4950536,1.7007118)" />
    <linearGradient
       id="linearGradient3266">
      <stop
         id="stop3268"
         style="stop-color:#538ec6;stop-opacity:1"
         offset="0" />
      <stop
         id="stop3270"
         style="stop-color:#3f84c5;stop-opacity:0"
         offset="1" />
    </linearGradient>
    <linearGradient
       x1="33.686768"
       y1="35.773647"
       x2="37.039948"
       y2="29.856804"
       id="linearGradient2514"
       xlink:href="#linearGradient3266"
       gradientUnits="userSpaceOnUse"
       gradientTransform="matrix(0.5107033,0,0,0.5010232,0.3489945,0.2504326)" />
    <linearGradient
       id="linearGradient3276">
      <stop
         id="stop3278"
         style="stop-color:#83acd5;stop-opacity:1"
         offset="0" />
      <stop
         id="stop3280"
         style="stop-color:#83acd5;stop-opacity:0"
         offset="1" />
    </linearGradient>
    <linearGradient
       x1="31.226292"
       y1="34.600941"
       x2="34.96563"
       y2="26.842505"
       id="linearGradient2512"
       xlink:href="#linearGradient3276"
       gradientUnits="userSpaceOnUse"
       gradientTransform="matrix(0.5107033,0,0,0.5010232,0.3489945,0.2504326)" />
    <linearGradient
       id="linearGradient4873">
      <stop
         id="stop4875"
         style="stop-color:white;stop-opacity:1"
         offset="0" />
      <stop
         id="stop4877"
         style="stop-color:white;stop-opacity:0"
         offset="1" />
    </linearGradient>
    <linearGradient
       x1="21.628975"
       y1="2.1102102"
       x2="22.245434"
       y2="43.366352"
       id="linearGradient2509"
       xlink:href="#linearGradient4873"
       gradientUnits="userSpaceOnUse"
       gradientTransform="matrix(0.4873978,0,0,0.4781595,0.4950536,1.7007118)" />
    <linearGradient
       id="linearGradient3319">
      <stop
         id="stop3321"
         style="stop-color:white;stop-opacity:0"
         offset="0" />
      <stop
         id="stop3323"
         style="stop-color:white;stop-opacity:0.14383562"
         offset="0.57424062" />
      <stop
         id="stop3325"
         style="stop-color:white;stop-opacity:0"
         offset="1" />
    </linearGradient>
    <linearGradient
       x1="33.386703"
       y1="41.887085"
       x2="39.686337"
       y2="28.50532"
       id="linearGradient2506"
       xlink:href="#linearGradient3319"
       gradientUnits="userSpaceOnUse"
       gradientTransform="matrix(0.4873978,0,0,0.4781595,0.4950536,1.7007118)" />
  </defs>
  <g
     id="layer1">
    <path
       d="M 23.33745,20.882199 C 23.33745,22.604113 18.261501,24 12,24 5.7384985,24 0.6625495,22.604113 0.6625495,20.882199 c 0,-1.721915 5.075949,-3.117802 11.3374505,-3.117802 6.261501,0 11.33745,1.395887 11.33745,3.117802 l 0,0 z"
       id="path2621"
       style="opacity:0.2;fill:url(#radialGradient2459);fill-opacity:1;fill-rule:nonzero;stroke:none;stroke-width:1;marker:none;visibility:visible;display:inline;overflow:visible" />
    <path
       d="M 12.6,17 C 10.100132,16.973008 8,14.834625 8,12.39285 8,10.291473 10.358504,8 12.645389,8 c 1.207326,0 2.376964,0.271709 3.244024,1.0922818 L 13.5,11.5 l 9,0 c 0,0 0,-9 0,-9 L 19.664604,5.3155415 C 17.7708,3.4898161 15.581661,2.5331702 12.786646,2.502989 7.1007014,2.4415911 2.5658841,6.9856351 2.503021,12.539089 2.440158,18.092544 6.9140536,22.436228 12.6,22.497626"
       id="path3372"
       style="fill:url(#linearGradient2517);fill-opacity:1;stroke:#538ec6;stroke-width:1.00474763;stroke-linecap:butt;stroke-linejoin:round;stroke-miterlimit:4;stroke-opacity:1;stroke-dasharray:none" />
    <path
       d="m 12.4,22.496696 c 4.754708,0.05134 10.212045,-3.552802 10.203489,-9.782868 l -5.035091,-0.03845 C 17.475702,15.2168 14.657523,17.094638 12.4,17"
       id="path3453"
       style="fill:url(#linearGradient2512);fill-opacity:1;stroke:url(#linearGradient2514);stroke-width:1.00474763;stroke-linecap:butt;stroke-linejoin:miter;stroke-miterlimit:4;stroke-opacity:1;stroke-dasharray:none" />
    <path
       d="M 12.396701,18 C 9.6270779,17.960276 7.0029131,15.584987 7,12.437791 6.9975139,9.734078 9.9037868,6.9602759 12.67341,7 c 1.365148,0.01958 3.04821,0.2516992 4.758717,1.8613524 L 15.864951,10.5 21.5,10.5 c 0,0 0,-5.6224624 0,-5.6224624 L 19.48025,6.6695858 C 17.671327,4.6900934 15.531429,3.5 12.701791,3.5 7.5023389,3.5 3.5,7.7944143 3.5,12.59259 3.5,18.278357 8.1931282,21.5 12.650411,21.5"
       id="path3370"
       style="opacity:0.4;fill:none;stroke:url(#linearGradient2509);stroke-width:1.00474763;stroke-linecap:butt;stroke-linejoin:miter;stroke-miterlimit:4;stroke-opacity:1;stroke-dasharray:none" />
    <path
       d="M 12.465385,21.878637 C 15.675337,21.878637 21.5,18.786436 21.5,12.72951 L 18.447863,12.626154 C 18.447863,15.495481 15.992505,18 12.21329,18"
       id="path2557"
       style="fill:none;stroke:url(#linearGradient2506);stroke-width:1.00474763;stroke-linecap:butt;stroke-linejoin:round;stroke-miterlimit:4;stroke-opacity:1;stroke-dasharray:none" />
  </g>
</svg>

<?xml version="1.0" encoding="UTF-8" standalone="no"?>
<!-- Created with Inkscape (http://www.inkscape.org/) -->
<svg
   xmlns:svg="http://www.w3.org/2000/svg"
   xmlns="http://www.w3.org/2000/svg"
   xmlns:xlink="http://www.w3.org/1999/xlink"
   version="1.0"
   width="24"
   height="24"
   id="svg2">
  <defs
     id="defs4">
    <linearGradient
       id="linearGradient5105-262-943-861">
      <stop
         id="stop2487"
         style="stop-color:#0d0d0d;stop-opacity:1"
         offset="0" />
      <stop
         id="stop2489"
         style="stop-color:#0d0d0d;stop-opacity:0"
         offset="1" />
    </linearGradient>
    <radialGradient
       cx="11.25"
       cy="19.03125"
       r="8.0625"
       fx="11.25"
       fy="19.03125"
       id="radialGradient2459"
       xlink:href="#linearGradient5105-262-943-861"
       gradientUnits="userSpaceOnUse"
       gradientTransform="matrix(1.4061954,0,0,0.3867044,-3.8196985,13.522738)" />
    <linearGradient
       id="linearGradient3533">
      <stop
         id="stop3535"
         style="stop-color:#b0cce6;stop-opacity:1"
         offset="0" />
      <stop
         id="stop3545"
         style="stop-color:#83acd5;stop-opacity:1"
         offset="1" />
    </linearGradient>
    <linearGradient
       x1="15.372947"
       y1="5.0471625"
       x2="15.372947"
       y2="22.599676"
       id="linearGradient2517"
       xlink:href="#linearGradient3533"
       gradientUnits="userSpaceOnUse"
       gradientTransform="matrix(0.4873978,0,0,0.4781595,0.4950536,1.7007118)" />
    <linearGradient
       id="linearGradient3266">
      <stop
         id="stop3268"
         style="stop-color:#538ec6;stop-opacity:1"
         offset="0" />
      <stop
         id="stop3270"
         style="stop-color:#3f84c5;stop-opacity:0"
         offset="1" />
    </linearGradient>
    <linearGradient
       x1="33.686768"
       y1="35.773647"
       x2="37.039948"
       y2="29.856804"
       id="linearGradient2514"
       xlink:href="#linearGradient3266"
       gradientUnits="userSpaceOnUse"
       gradientTransform="matrix(0.5107033,0,0,0.5010232,0.3489945,0.2504326)" />
    <linearGradient
       id="linearGradient3276">
      <stop
         id="stop3278"
         style="stop-color:#83acd5;stop-opacity:1"
         offset="0" />
      <stop
         id="stop3280"
         style="stop-color:#83acd5;stop-opacity:0"
         offset="1" />
    </linearGradient>
    <linearGradient
       x1="31.226292"
       y1="34.600941"
       x2="34.96563"
       y2="26.842505"
       id="linearGradient2512"
       xlink:href="#linearGradient3276"
       gradientUnits="userSpaceOnUse"
       gradientTransform="matrix(0.5107033,0,0,0.5010232,0.3489945,0.2504326)" />
    <linearGradient
       id="linearGradient4873">
      <stop
         id="stop4875"
         style="stop-color:#ffffff;stop-opacity:1"
         offset="0" />
      <stop
         id="stop4877"
         style="stop-color:#ffffff;stop-opacity:0"
         offset="1" />
    </linearGradient>
    <linearGradient
       x1="21.628975"
       y1="2.1102102"
       x2="22.245434"
       y2="43.366352"
       id="linearGradient2509"
       xlink:href="#linearGradient4873"
       gradientUnits="userSpaceOnUse"
       gradientTransform="matrix(0.4873978,0,0,0.4781595,0.4950536,1.7007118)" />
    <linearGradient
       id="linearGradient3319">
      <stop
         id="stop3321"
         style="stop-color:#ffffff;stop-opacity:0"
         offset="0" />
      <stop
         id="stop3323"
         style="stop-color:#ffffff;stop-opacity:0.14383562"
         offset="0.57424062" />
      <stop
         id="stop3325"
         style="stop-color:#ffffff;stop-opacity:0"
         offset="1" />
    </linearGradient>
    <linearGradient
       x1="33.386703"
       y1="41.887085"
       x2="39.686337"
       y2="28.50532"
       id="linearGradient2506"
       xlink:href="#linearGradient3319"
       gradientUnits="userSpaceOnUse"
       gradientTransform="matrix(0.4873978,0,0,0.4781595,0.4950536,1.7007118)" />
  </defs>
  <g
     id="layer1">
    <path
       d="M 23.33745,20.882199 C 23.33745,22.604113 18.261501,24 12,24 C 5.7384985,24 0.6625495,22.604113 0.6625495,20.882199 C 0.6625495,19.160284 5.7384985,17.764397 12,17.764397 C 18.261501,17.764397 23.33745,19.160284 23.33745,20.882199 L 23.33745,20.882199 z"
       id="path2621"
       style="opacity:0.2;fill:url(#radialGradient2459);fill-opacity:1;fill-rule:nonzero;stroke:none;stroke-width:1;stroke-linecap:butt;stroke-linejoin:miter;marker:none;marker-start:none;marker-mid:none;marker-end:none;stroke-miterlimit:4;stroke-dasharray:none;stroke-dashoffset:0;stroke-opacity:1;visibility:visible;display:inline;overflow:visible" />
    <path
       d="M 12.6,17 C 10.100132,16.973008 8,14.834625 8,12.39285 C 8,10.291473 10.358504,8 12.645389,8 C 13.852715,8 15.022353,8.271709 15.889413,9.0922818 L 13.5,11.5 L 22.5,11.5 C 22.5,11.5 22.5,2.5 22.5,2.5 L 19.664604,5.3155415 C 17.7708,3.4898161 15.581661,2.5331702 12.786646,2.502989 C 7.1007014,2.4415911 2.5658841,6.9856351 2.503021,12.539089 C 2.440158,18.092544 6.9140536,22.436228 12.6,22.497626"
       id="path3372"
       style="fill:url(#linearGradient2517);fill-opacity:1;stroke:#538ec6;stroke-width:1.00474763;stroke-linecap:butt;stroke-linejoin:round;stroke-miterlimit:4;stroke-dasharray:none;stroke-opacity:1" />
    <path
       d="M 12.4,22.496696 C 17.154708,22.548037 22.612045,18.943894 22.603489,12.713828 L 17.568398,12.675376 C 17.475702,15.2168 14.657523,17.094638 12.4,17"
       id="path3453"
       style="fill:url(#linearGradient2512);fill-opacity:1;stroke:url(#linearGradient2514);stroke-width:1.00474763;stroke-linecap:butt;stroke-linejoin:miter;stroke-miterlimit:4;stroke-dasharray:none;stroke-opacity:1" />
    <path
       d="M 12.396701,18 C 9.6270779,17.960276 7.0029131,15.584987 7,12.437791 C 6.9975139,9.734078 9.9037868,6.9602759 12.67341,7 C 14.038558,7.0195801 15.72162,7.2516992 17.432127,8.8613524 L 15.864951,10.5 L 21.5,10.5 C 21.5,10.5 21.5,4.8775376 21.5,4.8775376 L 19.48025,6.6695858 C 17.671327,4.6900934 15.531429,3.5 12.701791,3.5 C 7.5023389,3.5 3.5,7.7944143 3.5,12.59259 C 3.5,18.278357 8.1931282,21.5 12.650411,21.5"
       id="path3370"
       style="opacity:0.4;fill:none;fill-opacity:1;stroke:url(#linearGradient2509);stroke-width:1.00474763;stroke-linecap:butt;stroke-linejoin:miter;stroke-miterlimit:4;stroke-dasharray:none;stroke-opacity:1" />
    <path
       d="M 12.465385,21.878637 C 15.675337,21.878637 21.5,18.786436 21.5,12.72951 L 18.447863,12.626154 C 18.447863,15.495481 15.992505,18 12.21329,18"
       id="path2557"
       style="fill:none;fill-opacity:1;stroke:url(#linearGradient2506);stroke-width:1.00474763;stroke-linecap:butt;stroke-linejoin:round;stroke-miterlimit:4;stroke-dasharray:none;stroke-opacity:1" />
  </g>
</svg>
